X:846
T:Marry Ketty 
C:Joe Buchanan's Scottish Tome - Page 410.0
I:410 0
C:Neil Stewart c. 1781
R:Strathspey
Z:Carl Allison
L:1/8
M:C
K:G
!mf!B | G<G G2 B>A (B<d) | G<G G>c (B//c/<d) (A>B) |
!<(!G<G G2 B>A (B<d)!<)!!f! | (e//f/<g) (d<g) B<g !mf!(A>B) |
G<G G2 B>A (B<d) | G<G G>c (B//c/<d) (A>B) |
!<(!G<G G2 B>A (B<d)!<)!!f! | (e//f/<g) (d<g) B<g A |]
!f!c | (B<d) de/f/ g>d {f}e>d | (B<d) de/f/ g<B A>c |
(B<d) de/f/ g>d {f}e>d | (c<a) (B<g) (B<g) (A>!mf!c) |
(B<d) de/f/ g>d {f}e>d | (B<d) de/f/ g>B a>c |
!<(!(B<d) de/f/ {f}g/f/g/a/ g>d!<)!!f! | (c<a) (B<g) (B<g) A |]

